X:1
T:Shellback Song
M:6/8
L:1/8
K:C
 G| G2 FE-F G|F-A F D2 F| E2 CC-E F| G3 z2 B|B-d B GBG| FAF D2 F| E2 C G2 E|\
 D3 z2 d| dBB Bcd| c2 B G2 F| E2 C E2 F| G3 z2 c| cGG GA_B| AFF FGA|\
 GFE C2 C| C3 z2||

